X:2440
T:Hamish Henderson's Refusal
O:england
R:strathspey
C:Brian MacNeill
S:Los Angeles Scottish Fiddler's Tunebook
M:4/4
L:1/8
K:F
A,2|:D2 C>D A,2  A,>G,| A,<D E>F D3 E| F>C F<A (3GAB A>G| A<d d>e ^c3 A|
d>e f<a e<c c>A| (3Bcd A>F E3 F| D2 C>D A,2 A,>G,| A,<D E>F D4:|
E2 E>D E<c c2| (3BAG A>B A<d d>e| f>e (3fga a>g g<f| f>e e<d e3 A|
B>A (3GAB A<d d2| F<d d<F E3 F| D2 C>D A,2 A,>G,| A,<D E>F D4:||


